OFDR/img/icons/social/whatsapp.svg

<svg width="18" height="18" viewBox="0 0 18 18" fill="none" xmlns="http://www.w3.org/2000/svg">
<path fill-rule="evenodd" clip-rule="evenodd" d="M18 8.7682C18 13.6108 14.0442 17.5364 9.1636 17.5364C7.6142 17.5364 6.1586 17.1404 4.8922 16.4454L0 18L1.595 13.2956C0.7904 11.9744 0.327 10.4248 0.327 8.7682C0.327 3.9256 4.2832 0 9.1636 0C14.0446 0 18 3.9256 18 8.7682ZM9.1636 1.3964C5.0668 1.3964 1.7344 4.7034 1.7344 8.7682C1.7344 10.3812 2.2602 11.875 3.1496 13.0902L2.2214 15.828L5.0764 14.9206C6.2494 15.6908 7.6546 16.14 9.1638 16.14C13.26 16.14 16.593 12.8334 16.593 8.7686C16.593 4.7038 13.2602 1.3964 9.1636 1.3964ZM13.3279 10.5937C13.4794 10.6664 13.5818 10.7155 13.6258 10.7876C13.6796 10.8772 13.6796 11.3074 13.4996 11.8098C13.3184 12.3114 12.434 12.7954 12.0372 12.8312C11.9692 12.8374 11.9128 12.8509 11.855 12.8648C11.5754 12.9319 11.2628 13.0069 9.4378 12.294C7.40286 11.4987 6.06155 9.52466 5.78435 9.11669C5.76159 9.0832 5.74601 9.06026 5.7378 9.0494L5.73744 9.04892C5.62748 8.90394 4.8534 7.88323 4.8534 6.8268C4.8534 5.83741 5.34316 5.31851 5.56868 5.07957C5.58419 5.06314 5.59844 5.04804 5.6112 5.0342C5.8098 4.8192 6.0446 4.7654 6.189 4.7654C6.26363 4.7654 6.33832 4.77021 6.41049 4.77485C6.47795 4.7792 6.54322 4.7834 6.6042 4.7834C6.61934 4.7834 6.63525 4.78238 6.65184 4.78131C6.77391 4.77345 6.93258 4.76323 7.0914 5.1418C7.14922 5.27975 7.23305 5.48213 7.32206 5.697C7.51075 6.15253 7.72271 6.66422 7.7594 6.7372C7.8138 6.845 7.85 6.9704 7.7774 7.1138C7.76709 7.13443 7.75751 7.15394 7.74835 7.1726C7.69376 7.28383 7.654 7.36484 7.561 7.4724C7.52515 7.51395 7.48808 7.55871 7.451 7.6035C7.37617 7.69387 7.30126 7.78434 7.236 7.8488C7.1278 7.9558 7.0148 8.072 7.141 8.287C7.2674 8.5024 7.7022 9.2056 8.346 9.7752C9.03856 10.3879 9.64031 10.6469 9.94496 10.7781C10.0043 10.8036 10.0523 10.8243 10.0876 10.8418C10.3044 10.9494 10.4306 10.9314 10.557 10.7876C10.6836 10.6442 11.0988 10.1604 11.243 9.9452C11.3872 9.7302 11.532 9.7662 11.7306 9.8378C11.9286 9.9092 12.9938 10.4294 13.2106 10.5368C13.2524 10.5576 13.2916 10.5763 13.3279 10.5937Z" fill="white"/>
</svg>

<svg width="18" height="18" fill="none" xmlns="http://www.w3.org/2000/svg"><path fill-rule="evenodd" clip-rule="evenodd" d="M18 8.768c0 4.843-3.956 8.768-8.836 8.768a8.851 8.851 0 01-4.272-1.09L0 18l1.595-4.704A8.676 8.676 0 01.327 8.768C.327 3.926 4.283 0 9.164 0 14.044 0 18 3.926 18 8.768zM9.164 1.396c-4.097 0-7.43 3.307-7.43 7.372A7.29 7.29 0 003.15 13.09l-.929 2.738 2.855-.907a7.424 7.424 0 004.088 1.219c4.096 0 7.429-3.307 7.429-7.371 0-4.065-3.333-7.373-7.43-7.373zm4.164 9.198c.151.072.254.122.298.194.054.09.054.52-.126 1.022-.182.501-1.066.985-1.463 1.021-.068.006-.124.02-.182.034-.28.067-.592.142-2.417-.571-2.035-.795-3.376-2.77-3.654-3.177l-.046-.068c-.11-.145-.885-1.166-.885-2.222 0-.99.49-1.508.716-1.747l.042-.046a.8.8 0 01.578-.269c.075 0 .15.005.221.01a3.085 3.085 0 00.242.006c.122-.008.28-.018.44.36l.23.556c.189.456.4.967.437 1.04.055.108.091.233.018.377l-.029.059a1.212 1.212 0 01-.187.3 8.56 8.56 0 00-.11.13c-.075.09-.15.181-.215.246-.108.107-.221.223-.095.438s.561.919 1.205 1.488a5.6 5.6 0 001.599 1.003c.06.026.107.046.143.064.216.107.343.09.469-.054.127-.144.542-.628.686-.843.144-.215.289-.179.488-.107.198.071 1.263.591 1.48.699l.117.057z" fill="#fff"/></svg>
